X:1
T:Bonny Ann TS.198
T:Bonny Ann TS.198
T:Daniel Dow
C:Daniel Dow
L:1/8
Q:1/2=90
M:2/2
K:A
V:1 treble 
V:1
 c | AAAG EFGc | AAAB cded | cBcG EFGc | Aaag aA"^cr in MS"A :: g | e2 c2 eggd | B2 G2 Bddg | %8
 e2 c2 eggf | [Ae]aag aAAg | agea gfed | cBAG AcBd | cBcd cdea | gede cA"^cr in MS"A |] %14

